stationComplements/assets/LongRangeComm.svg

<svg xmlns="http://www.w3.org/2000/svg" xml:space="preserve" style="fill-rule:evenodd;clip-rule:evenodd;stroke-linejoin:round;stroke-miterlimit:2" viewBox="0 0 128 128">
  <path fill="currentColor" d="M97.549 26.62c1.356.053 2.688.29 3.963.759a12.6 12.6 0 0 1 7.417 7.416c.47 1.276.706 2.607.758 3.964.214 16.826.214 33.656 0 50.482-.052 1.357-.289 2.688-.758 3.964a12.6 12.6 0 0 1-7.417 7.416c-1.276.47-2.607.706-3.963.758a2627 2627 0 0 1-67.098 0c-1.356-.052-2.687-.288-3.963-.758a12.6 12.6 0 0 1-7.417-7.416c-.47-1.276-.706-2.607-.758-3.964a1979 1979 0 0 1 0-50.482c.052-1.357.289-2.688.758-3.964a12.6 12.6 0 0 1 7.417-7.416c1.276-.47 2.607-.706 3.963-.758a2627 2627 0 0 1 67.098 0m4.06 20.278L66.381 71.557c-.31.197-.614.373-.962.5a4.18 4.18 0 0 1-2.84 0 5 5 0 0 1-.962-.5L26.506 46.978c-.209 14.055-.422 28.115.117 42.157.028.445.116.88.282 1.295a4.24 4.24 0 0 0 2.452 2.395c.42.154.859.232 1.306.249 22.258.284 44.536.848 66.78-.004.445-.029.88-.117 1.294-.281a4.24 4.24 0 0 0 2.395-2.453c.155-.42.232-.86.25-1.307.179-14.04.506-28.092.226-42.13m-.669-9.673a4.25 4.25 0 0 0-2.297-2.05 4.2 4.2 0 0 0-1.306-.249c-22.178-.283-44.36-.001-66.54-.001-.493.006-.976.08-1.44.25a4.25 4.25 0 0 0-2.297 2.05L64 63.084z"/>
</svg>

<?xml version="1.0" encoding="UTF-8" standalone="no"?>
<!DOCTYPE svg PUBLIC "-//W3C//DTD SVG 1.1//EN" "http://www.w3.org/Graphics/SVG/1.1/DTD/svg11.dtd">
<svg width="100%" height="100%" viewBox="0 0 128 128" version="1.1" xmlns="http://www.w3.org/2000/svg" xmlns:xlink="http://www.w3.org/1999/xlink" xml:space="preserve" xmlns:serif="http://www.serif.com/" style="fill-rule:evenodd;clip-rule:evenodd;stroke-linejoin:round;stroke-miterlimit:2;">
    <g transform="matrix(1.15268,0,0,1.15268,-9.77144,-9.77147)">
        <path d="M97.549,26.62C98.905,26.673 100.237,26.91 101.512,27.379C104.943,28.655 107.653,31.364 108.929,34.795C109.399,36.071 109.635,37.402 109.687,38.759C109.901,55.585 109.901,72.415 109.687,89.241C109.635,90.598 109.398,91.929 108.929,93.205C107.653,96.636 104.943,99.345 101.512,100.621C100.236,101.091 98.905,101.327 97.549,101.379C75.184,101.665 52.816,101.665 30.451,101.379C29.095,101.327 27.764,101.091 26.488,100.621C23.057,99.345 20.347,96.636 19.071,93.205C18.601,91.929 18.365,90.598 18.313,89.241C18.098,72.414 18.098,55.586 18.313,38.759C18.365,37.402 18.602,36.071 19.071,34.795C20.347,31.364 23.057,28.655 26.488,27.379C27.764,26.909 29.095,26.673 30.451,26.621C52.816,26.335 75.184,26.335 97.549,26.621M101.609,46.899L66.381,71.557C66.071,71.754 65.767,71.93 65.419,72.057C64.502,72.388 63.496,72.388 62.579,72.057C62.241,71.926 61.919,71.758 61.617,71.557L26.506,46.978C26.297,61.033 26.084,75.093 26.623,89.135C26.651,89.58 26.739,90.015 26.905,90.43C27.349,91.537 28.24,92.408 29.357,92.825C29.777,92.979 30.216,93.057 30.663,93.074C52.921,93.358 75.199,93.922 97.443,93.07C97.888,93.041 98.323,92.953 98.737,92.789C99.845,92.345 100.715,91.454 101.132,90.336C101.287,89.916 101.364,89.476 101.382,89.029C101.561,74.989 101.888,60.937 101.608,46.899M100.939,37.226C100.457,36.28 99.637,35.548 98.642,35.176C98.223,35.024 97.782,34.94 97.336,34.927C75.158,34.644 52.976,34.926 30.796,34.926C30.303,34.932 29.82,35.006 29.356,35.176C28.361,35.548 27.541,36.28 27.059,37.226L64,63.084L100.939,37.226Z" fill="currentColor"/>
    </g>
</svg>
